src/components/Icon/assets/zoom-in.svg

<svg width="24" height="24" viewBox="0 0 24 24" fill="none" xmlns="http://www.w3.org/2000/svg">
<path fill-rule="evenodd" clip-rule="evenodd" d="M4.00018 10.0001C4.00018 13.3091 6.69118 16.0001 10.0002 16.0001C13.3092 16.0001 16.0002 13.3091 16.0002 10.0001C16.0002 6.69109 13.3092 4.00009 10.0002 4.00009C6.69118 4.00009 4.00018 6.69109 4.00018 10.0001ZM16.3122 14.8971L22.4142 21.0001L21.0002 22.4141L14.8972 16.3121C13.5422 17.3661 11.8462 18.0001 10.0002 18.0001C5.58918 18.0001 2.00018 14.4111 2.00018 10.0001C2.00018 5.58909 5.58918 2.00009 10.0002 2.00009C14.4112 2.00009 18.0002 5.58909 18.0002 10.0001C18.0002 11.8461 17.3662 13.5421 16.3122 14.8971ZM9.00018 9.00009V6.00009H11.0002V9.00009H14.0002V11.0001H11.0002V14.0001H9.00018V11.0001H6.00018V9.00009H9.00018Z" fill="#65676A"/>
</svg>

<svg xmlns="http://www.w3.org/2000/svg" width="24" height="24" fill="none" viewBox="0 0 24 24">
    <path fill="#65676A" fill-rule="evenodd" d="M4 10c0 3.31 2.691 6 6 6 3.31 0 6-2.69 6-6 0-3.309-2.69-6-6-6-3.309 0-6 2.691-6 6zm12.312 4.897L22.414 21 21 22.414l-6.103-6.102C13.542 17.366 11.847 18 10 18c-4.41 0-8-3.589-8-8 0-4.41 3.59-8 8-8 4.411 0 8 3.59 8 8 0 1.846-.634 3.542-1.688 4.897zM9 9V6h2v3h3v2h-3v3H9v-3H6V9h3z" clip-rule="evenodd"/>
</svg>
